X:1
T:Hungarian March
T:Hector Berlioz Engraved by R. L. Roy
T:Excerpt 1 1 measure before [4] to 3 measures after [5]
T:Trombone 2
T:www.brassexcerpts.com This work is made available under the Creative Commons CC0 1.0 Universal Public Domain Dedication. You can copy, modify, distribute and perform the work, even for commercial purposes, all without asking permission.
Z:www.brassexcerpts.com
Z:This work is made available under the Creative Commons CC0 1.0 Universal Public Domain Dedication.
Z:You can copy, modify, distribute and perform the work, even for commercial purposes, all without asking permission.
L:1/8
Q:1/2=88
M:2/2
K:C
V:1 bass nm="Piano" snm="Pno."
V:1
 z2!mf! =C2"_cresc." D2!<(! E2!<)! |!ff!"^4" F8 |!ff! .A,._B, C3 B, A,2- | A,G, F,3 E, D,^C, | %4
 D,E,F,G, A,2 A,,2 |!ff! .F,.G, A,3 G, F,2- | F,E, D,3 C, _B,,A,, | _B,,C,D,E, F,2 F,,2 | %8
!ff! .E,.F, G,3 F, E,2- | E,D, C,3 =B,, C,D, | E,F,G,A, =B,G,A,B, | C2 B,D C2 B,D | C2 B,2 C4 | %13
 ^C2 B,D C2 B,D | ^C2 B,2 C4 | D2 ^CE D4 | ^D2 ^^CE D4 | z2 A,4 A,2 | ^G,2 G,4 G,2 | %19
"^5" A,2 (^G,B,) A,2 (G,B,) | A,2 ^G,2 A,4 | z4 A,4 |] %22

